X:1
T:Jazer, CM
T:Augustus Edmonds Tozer (1857-1920)
T:Jazer, CM
T:Public Domain
C:Augustus Edmonds Tozer (1857-1920)
Z:Public Domain
%%score ( 1 2 ) ( 3 4 )
L:1/8
M:3/4
K:Ab
V:1 treble 
V:2 treble 
V:3 bass 
V:4 bass 
V:1
 E2 | (E2 F2) [EG]2 | [EA]4 [EB]2 | [Dd]4 [Ed]2 | [Ec]4 [_GA]2 | (A2 c2) [FB]2 | %6
 ([FA]2 [=EG]2) F2 | [=EG]4 [_EG]2 | (E2 F2) [DG]2 | [CA]4 [_Ge]2 | [Fe]4 [_Fd]2 | [Ec]4 [Ec]2 | %12
 (c2 B2) [_DA]2 | (G2 F2) [DE]2 | [CA]4 |] %15
V:2
 E2 | E4 x2 | x6 | x6 | x6 | F4 x2 | x4 F2 | x6 | D4 x2 | x6 | x6 | x6 | =D4 x2 | D4 x2 | x4 |] %15
V:3
 [A,C]2 | (C2 D2) [A,B,]2 | [A,C]4 [G,B,]2 | [F,A,]4 [E,G,]2 | [A,,A,]4 [A,C]2 | (D2 F,2) [D,G,]2 | %6
 (A,2 B,2) [D,=B,]2 | [C,C]4 [E,B,]2 | (G,2 A,2) [E,B,]2 | [F,A,]4 [C,A,]2 | [D,A,]4 [D,A,]2 | %11
 [A,,A,]4 [A,,A,]2 | [B,,F,]4 [B,,B,]2 | (B,2 A,2) [E,G,]2 | [A,,A,]4 |] %15
V:4
 x2 | A,4 x2 | x6 | x6 | x6 | D,4 x2 | D,4 x2 | x6 | E,4 x2 | x6 | x6 | x6 | x6 | E,4 x2 | x4 |] %15

